src/images/crypto-icon-svg/xdn.svg

<svg height="32" viewBox="0 0 32 32" width="32" xmlns="http://www.w3.org/2000/svg"><g fill="none" fill-rule="evenodd"><circle cx="16" cy="16" fill="#4f7aa2" r="16"/><path d="m13.3090129 12h2.7381974c1.3218884 0 3.6824034.8028085 3.6824034 4s-2.360515 4-3.6824034 4h-2.7381974zm1.5107296 6.3797468h1.1330472c.944206 0 2.0772532-.5775316 2.0772532-2.3797468s-1.1330472-2.3797468-2.0772532-2.3797468h-1.1330472zm5.9484978-6.3797468h.5665236l5.0987125 7.025641v-7.025641h.5665236v8h-.5665236l-5.0987125-6.8717949v6.8717949h-.5665236zm-15.7682403 0h1.88841202v2h-1.88841202zm2.83261803 0h1.88841201v2h-1.88841201zm2.83261807 0h1.888412v2h-1.888412zm0 3h1.888412v2h-1.888412zm0 3h1.888412v2h-1.888412zm-2.83261807-3h1.88841201v2h-1.88841201z" fill="#fff" fill-rule="nonzero"/></g></svg>

<svg height="32" width="32" xmlns="http://www.w3.org/2000/svg"><g fill="none" fill-rule="evenodd"><circle cx="16" cy="16" fill="#4f7aa2" r="16"/><path d="M13.309 12h2.738c1.322 0 3.683.803 3.683 4s-2.36 4-3.683 4H13.31zm1.51 6.38h1.134c.944 0 2.077-.578 2.077-2.38s-1.133-2.38-2.077-2.38H14.82zM20.77 12h.566l5.098 7.026V12H27v8h-.567l-5.098-6.872V20h-.567zM5 12h1.888v2H5zm2.833 0H9.72v2H7.833zm2.832 0h1.889v2h-1.889zm0 3h1.889v2h-1.889zm0 3h1.889v2h-1.889zm-2.832-3H9.72v2H7.833z" fill="#fff" fill-rule="nonzero"/></g></svg>
